X:1
T:Farewell to Tarwaithie
M:3/4
L:1/4
K:G
 G| B G G| E D D| E G A| B2 G/2G/2| B G G| E/2 D3/2 D| E/2 G3/2 A|\
 G2B/2-A/2| G B d| e d B| A/2 G3/2 A| B2 G| B G G| E D D| E/2 G2 A/2|\
 G2||
